img/svg/editors/wallet2.svg

<svg width="24" height="24" viewBox="0 0 24 24" fill="none" xmlns="http://www.w3.org/2000/svg">
<path d="M18.9229 0.858398L19.127 0.889648C19.3975 0.946946 19.652 1.06528 19.8701 1.23535C20.0337 1.36292 20.1741 1.51745 20.2852 1.69141L20.3867 1.87207C20.4778 2.05849 20.536 2.25874 20.5596 2.46387L20.5713 2.6709V4.92871H21.75C22.1726 4.92871 22.5802 5.07536 22.9043 5.34082L23.0381 5.46191C23.3796 5.80347 23.5713 6.26697 23.5713 6.75V20.25C23.5713 20.733 23.3796 21.1965 23.0381 21.5381C22.6965 21.8797 22.2331 22.0713 21.75 22.0713H2.25C1.82735 22.0713 1.4198 21.9247 1.0957 21.6592L0.961914 21.5381C0.62037 21.1965 0.428711 20.733 0.428711 20.25V6.75L0.436523 6.5752C0.46986 6.22788 0.602621 5.89726 0.818359 5.62305L0.932617 5.49121C1.21601 5.19456 1.59032 5.00366 1.99316 4.94629L2.16699 4.92969L2.20996 4.92773L2.25195 4.91699L18.3076 0.905273C18.5089 0.854916 18.7173 0.838804 18.9229 0.858398ZM2.25 5.57129C1.93745 5.57129 1.63801 5.69601 1.41699 5.91699C1.196 6.13799 1.07132 6.43747 1.07129 6.75V20.25C1.07129 20.5234 1.16616 20.7874 1.33789 20.9971L1.41699 21.084C1.63798 21.3047 1.93762 21.4287 2.25 21.4287H21.75C22.0235 21.4287 22.2874 21.3339 22.4971 21.1621L22.583 21.084C22.804 20.863 22.9287 20.5626 22.9287 20.25V6.75C22.9287 6.43747 22.804 6.13799 22.583 5.91699C22.362 5.69601 22.0625 5.57129 21.75 5.57129H2.25ZM19.9287 2.66895C19.9284 2.53485 19.9051 2.40209 19.8604 2.27637L19.8086 2.15332C19.7496 2.03285 19.6705 1.92353 19.5752 1.83008L19.4746 1.74219C19.3687 1.65967 19.2498 1.59599 19.123 1.55371L18.9941 1.51855C18.8629 1.49077 18.7281 1.48546 18.5957 1.50293L18.4648 1.52832L8.23926 4.08398L8.34277 4.92871H19.9287V2.66895Z" fill="#FBFBFB" stroke="#FBFBFB" stroke-width="0.857143"/>
</svg>

<svg width="24" height="24" fill="none" xmlns="http://www.w3.org/2000/svg"><path d="M18.923.858l.204.032a1.824 1.824 0 011.158.801l.102.181c.09.186.149.387.173.592l.011.207v2.258h1.179c.423 0 .83.146 1.154.412l.134.12c.342.342.533.806.533 1.289v13.5a1.822 1.822 0 01-1.821 1.821H2.25c-.423 0-.83-.146-1.154-.412l-.134-.12a1.822 1.822 0 01-.533-1.289V6.75l.008-.175c.033-.347.166-.678.381-.952l.115-.132a1.822 1.822 0 011.06-.545l.174-.016.043-.002.042-.011L18.308.905c.2-.05.41-.066.615-.047zM2.25 5.571A1.178 1.178 0 001.071 6.75v13.5c0 .273.095.537.267.747l.079.087c.221.22.52.345.833.345h19.5c.273 0 .537-.095.747-.267l.086-.078a1.18 1.18 0 00.346-.834V6.75a1.178 1.178 0 00-1.179-1.179H2.25zM19.929 2.67a1.18 1.18 0 00-.069-.393l-.051-.123a1.18 1.18 0 00-.234-.323l-.1-.088a1.179 1.179 0 00-.352-.188l-.129-.035a1.18 1.18 0 00-.398-.016l-.131.025L8.239 4.084l.104.845h11.586v-2.26z" fill="#FBFBFB" stroke="#FBFBFB" stroke-width=".857"/></svg>
